packages/tokens/icons/external/size16Px.svg

<svg viewBox="0 0 16 16" fill="none" xmlns="http://www.w3.org/2000/svg" width="1em" height="1em"><path d="M6 3.99268L3.63542 4.03701C2.72729 4.05404 2 4.79509 2 5.70339V12.401C2 13.3215 2.74619 14.0677 3.66667 14.0677H10.3333C11.2538 14.0677 12 13.3215 12 12.401V10.0677" stroke="currentColor" stroke-linecap="round" stroke-linejoin="round"/><path d="M8 8.00003L13.5253 2.47471M9.22148 2.25953L13.7405 2.25952V6.77852" stroke="currentColor" stroke-linecap="round" stroke-linejoin="round"/></svg>

<svg xmlns="http://www.w3.org/2000/svg" fill="none" viewBox="0 0 16 16" width="1em" height="1em"><path stroke="currentColor" stroke-linecap="round" stroke-linejoin="round" d="m6 3.993-2.365.044A1.667 1.667 0 0 0 2 5.703v6.698c0 .92.746 1.667 1.667 1.667h6.666c.92 0 1.667-.746 1.667-1.667v-2.333M8 8l5.525-5.525M9.221 2.26h4.52v4.519"/></svg>
